X: 3
T: Josefin's Dopvals
C: Roger Tallroth of Väsen
R: waltz
M: 3/4
L: 1/4
K: Gmaj
E|: "G(Em)"DGA|B d c|BAG|D2 E|"C" C2 C/2C/2|EGF|E3|"D"D3|
"G(Em)"DGA|B d c|BAG|D2 E|"C"C2 C/2C/2| EFG|1"D"A3-|A2 E:|2"D"A3-|A2B/c/|
|: "G"dBd|g2f|"C"e3|"G"d3|"C"ced|cBA|"G"B>c B|"D"ABc|
"G"dBd|g2f|"C"e3|"G"d3|"C"ced|cBA|"G"B>c B|"D"ABc|
"Em"BAG|"D"F2G|"C"G3|C>DC|"G"B,DG|"D"FEF|1"C"G3 :|2"G"G2 :|